X: 58
T: Juliann Johnson
R: reel
M: C|
L: 1/8
K: D
"D"fafe dfed | B(d d)ed2fg| a2 a2aab2 | "A"a8 | 
"D"fafe dfed | B(d d)ed2e2|"D"f2e2"G"dAB2 |"A"A6:|
|:A2|"G"BABcd3A|BABcd3A|BABc dAB2|"D" (A6 A)A |
| "G"BABcd3A |BABcd2e2|"D"f2e2"G"dAB2 | "A7"A6 :|
